X: 4427
T: Bonnie Anne
R: reel
M: 4/4
K: Gmajor
DG~G2 FGAc|BG~G2 A2AF|DzG2 FGAc|1 BGAF G2GF:|2 BGAF GABc||
d2d2 ^c3c|dedc BABc|d2gd cA~A2|1 AGAF GABc:|2 AGAF G3B||

